src/Icon/svgs/Hashtag.svg

<svg width="24" height="24" viewBox="0 0 24 24" fill="none" xmlns="http://www.w3.org/2000/svg">
<path fill-rule="evenodd" clip-rule="evenodd" d="M9.69106 8.99997L8.35773 15H14.3089L15.6423 8.99997H9.69106ZM10.1355 6.99997H16.0867L17.0238 2.78304C17.1436 2.24391 17.6778 1.90398 18.2169 2.02378C18.7561 2.14359 19.096 2.67777 18.9762 3.2169L18.1355 6.99997H21C21.5523 6.99997 22 7.44769 22 7.99997C22 8.55225 21.5523 8.99997 21 8.99997H17.6911L16.3577 15H19.5C20.0523 15 20.5 15.4477 20.5 16C20.5 16.5523 20.0523 17 19.5 17H15.9133L14.9762 21.2169C14.8564 21.756 14.3222 22.096 13.7831 21.9762C13.2439 21.8563 12.904 21.3222 13.0238 20.783L13.8645 17H7.91328L6.97619 21.2169C6.85638 21.756 6.3222 22.096 5.78307 21.9762C5.24394 21.8563 4.90401 21.3222 5.02381 20.783L5.86449 17H3C2.44772 17 2 16.5523 2 16C2 15.4477 2.44772 15 3 15H6.30894L7.64227 8.99997H4.5C3.94772 8.99997 3.5 8.55225 3.5 7.99997C3.5 7.44769 3.94772 6.99997 4.5 6.99997H8.08672L9.02381 2.78304C9.14362 2.24391 9.6778 1.90398 10.2169 2.02378C10.7561 2.14359 11.096 2.67777 10.9762 3.2169L10.1355 6.99997Z" fill="#1B1C1D"/>
</svg>

<svg xmlns="http://www.w3.org/2000/svg" width="24" height="24" fill="none"><path fill-rule="evenodd" d="M9.691 9l-1.333 6h5.951l1.333-6H9.691zm.444-2h5.951l.937-4.217a1 1 0 0 1 1.952.434L18.136 7H21a1 1 0 1 1 0 2h-3.309l-1.333 6H19.5a1 1 0 1 1 0 2h-3.587l-.937 4.217a1 1 0 1 1-1.952-.434L13.865 17H7.913l-.937 4.217a1 1 0 1 1-1.952-.434L5.864 17H3a1 1 0 1 1 0-2h3.309l1.333-6H4.5a1 1 0 0 1 0-2h3.587l.937-4.217a1 1 0 0 1 1.952.434L10.136 7z" fill="#1B1C1D"/></svg>
